X:1
T:E minor Stephen Jenks, 1805
T:Isaac Watts, 1706 Confession and Pardon   66. 86. (S. M.)
T:New Suffield
T:Transcribed from Jenks' Delights of Harmony, 1805.
%%score [ 1 2 3 4 ]
L:1/8
Q:1/4=120
M:3/2
K:G
V:1 treble nm="Treble" snm="Tr."
V:2 treble nm="Counter" snm="C."
V:3 treble-8 nm="Tenor" snm="T."
V:4 bass nm="Bass" snm="B."
V:1
 B4 | B8 (A2 G2) | d8 (d2 c2) | B8 B4 | ^c8 B4 | e8 (A2 B2) | B8 (A2 e2) | e8 (d2 e2) | d8 B4 | %9
w: 1.~My|sor- rows, *|like a *|flood, Im-|pa- tient|of re- *|straint, In- *|to thy *|bo- som,|
w: 2.~This|im- pious *|heart of *|mine Could|once de-|fy the *|Lord; Could *|rush with *|vio- lence|
 (G3 A B4) d4 | e8 (3(B2 c2 B2) | (B4 d4) (d2 e2) | A8 (3(^d2 e2 d2) | B12 |] %14
w: O~ _ _ my|God, Pour~ _ _|out~ _ a *|long com- * *|plaint.|
w: on~ _ _ to|sin, In~ _ _|pre- * sence *|of Thy~ _ _|sword.|
V:2
 E4 | F8 A4 | G8 (F2 E2) | D8 B4 | A8 F4 | G8 (F2 G2) | F8 (D2 G2) | G8 (F2 E2) | F8 G4 | %9
w: 3.~How|of- ten|have I *|stood A|re- bel|to the *|skies, The *|calls, the *|ten- ders,|
w: 4.~He|of- fers|all his *|grace, And|all his|heav'n to *|me; Of- *|fers! but *|'tis to|
 (G3 F E4) F4 | G8 B4 | B8 (D2 G2) | F8 (^D2 F2) | E12 |] %14
w: of~ _ _ a|God, And|mer- cy's *|lou- dest *|cries!|
w: sense- * * less|brass, That|can- not *|feel nor *|see.|
V:3
 e4 | ^d8 (=d2 ed) | B8 A4 | G8 B4 | e8 (3(e2 f2 g2) | B8 (A2 G2) | ^d8 (A2 G2) | B8 (A2 G2) | %8
w: 5.~Je-|sus, the * *|Sa- vior,|stands, To|court me * *|from a- *|bove, And *|looks and *|
w: 6.~But|I, a * *|stu- pid|fool, How|long have * *|I with- *|stood The *|bles- sings *|
 A8 (B2 G2) | (E3 F G4) A4 | B8 e4 | (3(d2 e2 d2 B4) (A2 G2) | d8 (3(^d2 B2 d2) | e12 |] %14
w: spreads his *|woun- * * ded|hands, And|shows * * * the *|prints of * *|love.|
w: pur- chased *|with * * his|soul, And|paid * * * for *|all in * *|blood!|
V:4
 E,4 | B,,8 D,4 | G,8 D,4 | G,,8 G,4 | A,8 B,4 | E,8 (F,2 E,2) | B,,8 (D,2 E,2) | E,8 (F,2 G,2) | %8
w: 7.~Now,|for one|power- ful|glance, Dear|Sa- vior,|from thy *|face! This *|re- bel *|
w: 8.~Over-|come by|love I|fall: Here|at thy|cross I *|lie: And *|throw my *|
 D,8 G,4 | (B,3 A, G,4) F,4 | E,8 E,4 | G,8 (F,2 E,2) | D,8 B,,4 | E,12 |] %14
w: heart no|more~ _ _ with-|stands, But|sinks be- *|neath thy|grace.|
w: flesh, my|soul,~ _ _ my|all, And|weep, and *|love, and|die.|

